symbols/web/markunread_mailbox/materialsymbolsrounded/markunread_mailbox_wght200grad200_40px.svg

<svg xmlns="http://www.w3.org/2000/svg" height="40" width="40"><path d="M7.25 35.667q-1.292 0-2.208-.917-.917-.917-.917-2.25V17.167q0-1.334.917-2.25Q5.958 14 7.25 14h3.208V4.875q0-.667.438-1.104.437-.438 1.146-.438h8.666q.667 0 1.104.438.438.437.438 1.104v2.5q0 .667-.438 1.104-.437.438-1.104.438h-8.125v12.916q0 .417-.312.729-.313.313-.729.313-.459 0-.771-.313-.313-.312-.313-.729v-5.708H7.25q-.417 0-.708.292-.292.291-.292.75V32.5q0 .458.292.75.291.292.708.292h25.5q.417 0 .708-.292.292-.292.292-.75V17.167q0-.459-.292-.75-.291-.292-.708-.292H15.667V14H32.75q1.333 0 2.229.917.896.916.896 2.25V32.5q0 1.333-.917 2.25-.916.917-2.208.917Zm-1-19.542v5.708-.458 1.5-6.75 17.417-17.417Z"/></svg>

<svg xmlns="http://www.w3.org/2000/svg" height="40" width="40"><path d="M7.25 35.667Q5.958 35.667 5.042 34.75Q4.125 33.833 4.125 32.5V17.167Q4.125 15.833 5.042 14.917Q5.958 14 7.25 14H10.458V4.875Q10.458 4.208 10.896 3.771Q11.333 3.333 12.042 3.333H20.708Q21.375 3.333 21.812 3.771Q22.25 4.208 22.25 4.875V7.375Q22.25 8.042 21.812 8.479Q21.375 8.917 20.708 8.917H12.583V21.833Q12.583 22.25 12.271 22.562Q11.958 22.875 11.542 22.875Q11.083 22.875 10.771 22.562Q10.458 22.25 10.458 21.833V16.125H7.25Q6.833 16.125 6.542 16.417Q6.25 16.708 6.25 17.167V32.5Q6.25 32.958 6.542 33.25Q6.833 33.542 7.25 33.542H32.75Q33.167 33.542 33.458 33.25Q33.75 32.958 33.75 32.5V17.167Q33.75 16.708 33.458 16.417Q33.167 16.125 32.75 16.125H15.667V14H32.75Q34.083 14 34.979 14.917Q35.875 15.833 35.875 17.167V32.5Q35.875 33.833 34.958 34.75Q34.042 35.667 32.75 35.667ZM6.25 16.125V21.833V21.375Q6.25 22.042 6.25 22.458Q6.25 22.875 6.25 22.875Q6.25 22.875 6.25 22.438Q6.25 22 6.25 21.375V16.125Q6.25 16.125 6.25 16.417Q6.25 16.708 6.25 17.167V32.5Q6.25 32.958 6.25 33.25Q6.25 33.542 6.25 33.542Q6.25 33.542 6.25 33.25Q6.25 32.958 6.25 32.5V17.167Q6.25 16.708 6.25 16.417Q6.25 16.125 6.25 16.125Z"/></svg>
